UI/Travel-Transport-Tracking/SVG/walking_outline_24px.svg

<svg width="24" height="24" viewBox="0 0 24 24" fill="none" xmlns="http://www.w3.org/2000/svg">
<path d="M11.5 6C11.1022 6 10.7206 5.84196 10.4393 5.56066C10.158 5.27936 10 4.89782 10 4.5V3.5C10 3.10218 10.158 2.72064 10.4393 2.43934C10.7206 2.15804 11.1022 2 11.5 2C11.8978 2 12.2794 2.15804 12.5607 2.43934C12.842 2.72064 13 3.10218 13 3.5V4.5C13 4.89782 12.842 5.27936 12.5607 5.56066C12.2794 5.84196 11.8978 6 11.5 6ZM11 9H12L14.41 11.41C14.5961 11.5972 14.8173 11.7457 15.061 11.8469C15.3047 11.9482 15.5661 12.0002 15.83 12H19V10H16L13 7H9V13L10 14.49L9.5 16.49L5.5 20.49L7 22L11 18L11.5 16.37L16 22L17.5 20.5L11 12.5V9ZM5.59 8.41C5.40283 8.59606 5.25434 8.81732 5.15308 9.06103C5.05182 9.30474 4.99979 9.56609 5 9.83V13H7V7L5.59 8.41Z" fill="#0F1621"/>
</svg>

<svg xmlns="http://www.w3.org/2000/svg" width="24" height="24" viewBox="0 0 24 24"><rect width="24" height="24" style="fill:none"/><path d="M11.5,6h0A1.5,1.5,0,0,1,10,4.5v-1A1.5,1.5,0,0,1,11.5,2h0A1.5,1.5,0,0,1,13,3.5v1A1.5,1.5,0,0,1,11.5,6ZM11,9h1l2.41,2.41a2,2,0,0,0,1.42.59H19V10H16L13,7H9v6l1,1.49-.5,2-4,4L7,22l4-4,.5-1.63L16,22l1.5-1.5-6.5-8ZM5.59,8.41A2,2,0,0,0,5,9.83V13H7V7Z"/></svg>
